X: 17585
T: Hobed O Hilion
R: waltz
M: 3/4
K: Dminor
|:A2|d3 e f2|A4 A=B|c2 c2 d2|G4 FG|
A2 A2 FG|A2 A2 FG|A2 d2 e2|d4:|
|:e2|f2 ef cA|f2 ef cA|fg af ge|d4 cB|
A2 A2 FG|A2 A2 FG|A2 d2 e2|d4:|

